svg/color/barmy.svg

<?xml version="1.0" encoding="UTF-8" ?>
<!DOCTYPE svg PUBLIC "-//W3C//DTD SVG 1.1//EN" "http://www.w3.org/Graphics/SVG/1.1/DTD/svg11.dtd">
<svg width="250pt" height="250pt" viewBox="0 0 250 250" version="1.1" xmlns="http://www.w3.org/2000/svg">
<g id="#ffffffff">
<path fill="#ffffff" opacity="1.00" d=" M 0.00 0.00 L 250.00 0.00 L 250.00 250.00 L 0.00 250.00 L 0.00 0.00 M 116.05 2.05 C 75.44 4.54 37.23 29.02 17.51 64.52 C 2.97 90.07 -1.79 120.94 4.15 149.71 C 9.26 175.39 23.01 199.20 42.50 216.66 C 64.30 236.55 93.52 247.96 123.00 248.33 C 144.97 248.70 167.03 243.09 186.10 232.16 C 211.94 217.44 232.16 193.10 241.71 164.92 C 249.69 141.57 250.45 115.83 243.85 92.05 C 235.55 61.62 214.93 34.86 187.76 18.87 C 166.34 6.09 140.91 0.15 116.05 2.05 Z" />
</g>
<g id="#010101ff">
<path fill="#010101" opacity="1.00" d=" M 116.05 2.05 C 140.91 0.15 166.34 6.09 187.76 18.87 C 214.93 34.86 235.55 61.62 243.85 92.05 C 250.45 115.83 249.69 141.57 241.71 164.92 C 232.16 193.10 211.94 217.44 186.10 232.16 C 167.03 243.09 144.97 248.70 123.00 248.33 C 93.52 247.96 64.30 236.55 42.50 216.66 C 23.01 199.20 9.26 175.39 4.15 149.71 C -1.79 120.94 2.97 90.07 17.51 64.52 C 37.23 29.02 75.44 4.54 116.05 2.05 M 34.51 56.33 C 35.10 64.89 36.14 73.42 36.82 81.98 C 49.97 89.21 62.79 97.04 75.91 104.33 C 82.67 100.27 89.51 96.36 96.35 92.46 C 94.23 90.58 91.66 89.35 89.23 87.94 C 71.01 77.36 52.72 66.92 34.51 56.33 M 94.31 74.96 C 99.57 77.93 104.74 81.08 110.06 83.94 C 115.45 82.34 119.83 78.16 125.10 76.09 C 130.22 78.30 134.56 82.16 139.84 83.98 C 145.32 81.24 150.47 77.86 155.88 74.95 C 145.61 68.97 135.30 63.06 124.99 57.17 C 114.75 63.08 104.50 68.97 94.31 74.96 M 154.28 91.73 C 154.26 91.95 154.23 92.38 154.22 92.60 C 160.77 96.71 167.61 100.33 174.23 104.33 C 187.31 97.01 200.13 89.22 213.24 81.94 C 213.96 73.39 214.93 64.86 215.61 56.31 C 195.18 68.13 174.70 79.90 154.28 91.73 M 82.30 111.55 C 82.21 128.11 82.23 144.68 82.29 161.24 C 96.61 169.22 110.66 177.72 124.98 185.68 C 139.37 177.75 153.48 169.27 167.78 161.15 C 167.72 144.62 167.83 128.08 167.73 111.54 C 153.42 103.52 139.39 94.94 124.98 87.11 C 110.64 95.04 96.56 103.46 82.30 111.55 M 39.16 99.19 C 39.86 107.69 40.50 116.20 41.64 124.65 C 46.41 127.91 51.73 130.36 56.58 133.51 C 56.96 147.42 56.70 161.38 56.72 175.30 C 79.46 188.48 102.27 201.54 125.00 214.74 C 147.79 201.64 170.54 188.45 193.34 175.33 C 193.26 161.38 193.28 147.42 193.34 133.46 C 198.41 130.75 203.25 127.61 208.36 124.98 C 209.52 116.43 210.25 107.81 210.88 99.20 C 199.65 105.62 188.55 112.27 177.24 118.54 C 177.07 133.71 177.24 148.88 177.16 164.04 C 177.52 165.58 176.24 166.55 175.07 167.17 C 159.24 176.27 143.43 185.41 127.62 194.55 C 126.47 195.13 125.08 196.14 123.80 195.27 C 106.90 185.69 90.21 175.72 73.26 166.24 C 72.86 151.51 73.40 136.75 73.01 122.02 C 72.72 120.76 73.35 118.82 71.93 118.12 C 61.03 111.77 50.07 105.52 39.16 99.19 Z" />
<path fill="#010101" opacity="1.00" d=" M 115.06 113.07 C 118.42 109.82 121.67 106.47 125.00 103.20 C 128.94 107.46 133.49 111.17 137.09 115.73 C 133.00 119.67 129.06 123.76 125.02 127.75 C 121.11 123.72 116.96 119.91 113.20 115.74 C 113.12 114.54 114.44 113.92 115.06 113.07 Z" />
<path fill="#010101" opacity="1.00" d=" M 103.92 124.17 C 110.97 131.18 117.96 138.26 125.01 145.27 C 131.94 138.17 139.06 131.26 146.01 124.17 C 149.77 128.06 153.74 131.75 157.46 135.69 C 158.47 136.65 156.87 137.54 156.37 138.26 C 145.98 148.73 135.53 159.15 125.05 169.53 C 114.05 158.35 102.76 147.45 91.86 136.17 C 95.94 132.23 99.89 128.16 103.92 124.17 Z" />
</g>
<g id="#f3ba2fff">
<path fill="#f3ba2f" opacity="1.00" d=" M 34.51 56.33 C 52.72 66.92 71.01 77.36 89.23 87.94 C 91.66 89.35 94.23 90.58 96.35 92.46 C 89.51 96.36 82.67 100.27 75.91 104.33 C 62.79 97.04 49.97 89.21 36.82 81.98 C 36.14 73.42 35.10 64.89 34.51 56.33 Z" />
<path fill="#f3ba2f" opacity="1.00" d=" M 94.31 74.96 C 104.50 68.97 114.75 63.08 124.99 57.17 C 135.30 63.06 145.61 68.97 155.88 74.95 C 150.47 77.86 145.32 81.24 139.84 83.98 C 134.56 82.16 130.22 78.30 125.10 76.09 C 119.83 78.16 115.45 82.34 110.06 83.94 C 104.74 81.08 99.57 77.93 94.31 74.96 Z" />
<path fill="#f3ba2f" opacity="1.00" d=" M 154.28 91.73 C 174.70 79.90 195.18 68.13 215.61 56.31 C 214.93 64.86 213.96 73.39 213.24 81.94 C 200.13 89.22 187.31 97.01 174.23 104.33 C 167.61 100.33 160.77 96.71 154.22 92.60 C 154.23 92.38 154.26 91.95 154.28 91.73 Z" />
<path fill="#f3ba2f" opacity="1.00" d=" M 82.30 111.55 C 96.56 103.46 110.64 95.04 124.98 87.11 C 139.39 94.94 153.42 103.52 167.73 111.54 C 167.83 128.08 167.72 144.62 167.78 161.15 C 153.48 169.27 139.37 177.75 124.98 185.68 C 110.66 177.72 96.61 169.22 82.29 161.24 C 82.23 144.68 82.21 128.11 82.30 111.55 M 115.06 113.07 C 114.44 113.92 113.12 114.54 113.20 115.74 C 116.96 119.91 121.11 123.72 125.02 127.75 C 129.06 123.76 133.00 119.67 137.09 115.73 C 133.49 111.17 128.94 107.46 125.00 103.20 C 121.67 106.47 118.42 109.82 115.06 113.07 M 103.92 124.17 C 99.89 128.16 95.94 132.23 91.86 136.17 C 102.76 147.45 114.05 158.35 125.05 169.53 C 135.53 159.15 145.98 148.73 156.37 138.26 C 156.87 137.54 158.47 136.65 157.46 135.69 C 153.74 131.75 149.77 128.06 146.01 124.17 C 139.06 131.26 131.94 138.17 125.01 145.27 C 117.96 138.26 110.97 131.18 103.92 124.17 Z" />
<path fill="#f3ba2f" opacity="1.00" d=" M 39.16 99.19 C 50.07 105.52 61.03 111.77 71.93 118.12 C 73.35 118.82 72.72 120.76 73.01 122.02 C 73.40 136.75 72.86 151.51 73.26 166.24 C 90.21 175.72 106.90 185.69 123.80 195.27 C 125.08 196.14 126.47 195.13 127.62 194.55 C 143.43 185.41 159.24 176.27 175.07 167.17 C 176.24 166.55 177.52 165.58 177.16 164.04 C 177.24 148.88 177.07 133.71 177.24 118.54 C 188.55 112.27 199.65 105.62 210.88 99.20 C 210.25 107.81 209.52 116.43 208.36 124.98 C 203.25 127.61 198.41 130.75 193.34 133.46 C 193.28 147.42 193.26 161.38 193.34 175.33 C 170.54 188.45 147.79 201.64 125.00 214.74 C 102.27 201.54 79.46 188.48 56.72 175.30 C 56.70 161.38 56.96 147.42 56.58 133.51 C 51.73 130.36 46.41 127.91 41.64 124.65 C 40.50 116.20 39.86 107.69 39.16 99.19 Z" />
</g>
</svg>

<?xml version="1.0" encoding="utf-8"?>
<!-- Generator: Adobe Illustrator 26.0.3, SVG Export Plug-In . SVG Version: 6.00 Build 0)  -->
<svg version="1.1" id="Layer_1" xmlns="http://www.w3.org/2000/svg" xmlns:xlink="http://www.w3.org/1999/xlink" x="0px" y="0px"
	 viewBox="0 0 250 250" style="enable-background:new 0 0 250 250;" xml:space="preserve">
<style type="text/css">
	.st0{fill:#010101;}
	.st1{fill:#F3BA2F;}
</style>
<g id="_x23_010101ff">
	<path class="st0" d="M116.1,2c24.9-1.9,50.3,4,71.7,16.8c27.2,16,47.8,42.8,56.1,73.2c6.6,23.8,5.8,49.5-2.1,72.9
		c-9.6,28.2-29.8,52.5-55.6,67.2C167,243.1,145,248.7,123,248.3c-29.5-0.4-58.7-11.8-80.5-31.7C23,199.2,9.3,175.4,4.2,149.7
		C-1.8,120.9,3,90.1,17.5,64.5C37.2,29,75.4,4.5,116.1,2 M34.5,56.3c0.6,8.6,1.6,17.1,2.3,25.7c13.2,7.2,26,15.1,39.1,22.3
		c6.8-4.1,13.6-8,20.4-11.9c-2.1-1.9-4.7-3.1-7.1-4.5C71,77.4,52.7,66.9,34.5,56.3 M94.3,75c5.3,3,10.4,6.1,15.8,9
		c5.4-1.6,9.8-5.8,15-7.9c5.1,2.2,9.5,6.1,14.7,7.9c5.5-2.7,10.6-6.1,16-9c-10.3-6-20.6-11.9-30.9-17.8C114.8,63.1,104.5,69,94.3,75
		 M154.3,91.7c0,0.2-0.1,0.6-0.1,0.9c6.6,4.1,13.4,7.7,20,11.7c13.1-7.3,25.9-15.1,39-22.4c0.7-8.6,1.7-17.1,2.4-25.6
		C195.2,68.1,174.7,79.9,154.3,91.7 M82.3,111.6c-0.1,16.6-0.1,33.1,0,49.7c14.3,8,28.4,16.5,42.7,24.4
		c14.4-7.9,28.5-16.4,42.8-24.5c-0.1-16.5,0.1-33.1-0.1-49.6c-14.3-8-28.3-16.6-42.7-24.4C110.6,95,96.6,103.5,82.3,111.6
		 M39.2,99.2c0.7,8.5,1.3,17,2.5,25.5c4.8,3.3,10.1,5.7,14.9,8.9c0.4,13.9,0.1,27.9,0.1,41.8c22.7,13.2,45.5,26.2,68.3,39.4
		c22.8-13.1,45.5-26.3,68.3-39.4c-0.1-13.9-0.1-27.9,0-41.9c5.1-2.7,9.9-5.9,15-8.5c1.2-8.6,1.9-17.2,2.5-25.8
		c-11.2,6.4-22.3,13.1-33.6,19.3c-0.2,15.2,0,30.3-0.1,45.5c0.4,1.5-0.9,2.5-2.1,3.1c-15.8,9.1-31.6,18.2-47.5,27.4
		c-1.2,0.6-2.5,1.6-3.8,0.7c-16.9-9.6-33.6-19.6-50.5-29c-0.4-14.7,0.1-29.5-0.2-44.2c-0.3-1.3,0.3-3.2-1.1-3.9
		C61,111.8,50.1,105.5,39.2,99.2z"/>
	<path class="st0" d="M115.1,113.1c3.4-3.2,6.6-6.6,9.9-9.9c3.9,4.3,8.5,8,12.1,12.5c-4.1,3.9-8,8-12.1,12c-3.9-4-8.1-7.8-11.8-12
		C113.1,114.5,114.4,113.9,115.1,113.1z"/>
	<path class="st0" d="M103.9,124.2c7.1,7,14,14.1,21.1,21.1c6.9-7.1,14-14,21-21.1c3.8,3.9,7.7,7.6,11.5,11.5c1,1-0.6,1.8-1.1,2.6
		c-10.4,10.5-20.8,20.9-31.3,31.3c-11-11.2-22.3-22.1-33.2-33.4C95.9,132.2,99.9,128.2,103.9,124.2z"/>
</g>
<g id="_x23_f3ba2fff">
	<path class="st1" d="M34.5,56.3c18.2,10.6,36.5,21,54.7,31.6c2.4,1.4,5,2.6,7.1,4.5c-6.8,3.9-13.7,7.8-20.4,11.9
		C62.8,97,50,89.2,36.8,82C36.1,73.4,35.1,64.9,34.5,56.3z"/>
	<path class="st1" d="M94.3,75c10.2-6,20.4-11.9,30.7-17.8c10.3,5.9,20.6,11.8,30.9,17.8c-5.4,2.9-10.6,6.3-16,9
		c-5.3-1.8-9.6-5.7-14.7-7.9c-5.3,2.1-9.7,6.2-15,7.9C104.7,81.1,99.6,77.9,94.3,75z"/>
	<path class="st1" d="M154.3,91.7c20.4-11.8,40.9-23.6,61.3-35.4c-0.7,8.5-1.6,17.1-2.4,25.6c-13.1,7.3-25.9,15.1-39,22.4
		c-6.6-4-13.5-7.6-20-11.7C154.2,92.4,154.3,91.9,154.3,91.7z"/>
	<path class="st1" d="M82.3,111.6c14.3-8.1,28.3-16.5,42.7-24.4c14.4,7.8,28.4,16.4,42.7,24.4c0.1,16.5,0,33.1,0.1,49.6
		c-14.3,8.1-28.4,16.6-42.8,24.5c-14.3-8-28.4-16.5-42.7-24.4C82.2,144.7,82.2,128.1,82.3,111.6 M115.1,113.1
		c-0.6,0.8-1.9,1.5-1.9,2.7c3.8,4.2,7.9,8,11.8,12c4-4,8-8.1,12.1-12c-3.6-4.6-8.1-8.3-12.1-12.5
		C121.7,106.5,118.4,109.8,115.1,113.1 M103.9,124.2c-4,4-8,8.1-12.1,12c10.9,11.3,22.2,22.2,33.2,33.4
		c10.5-10.4,20.9-20.8,31.3-31.3c0.5-0.7,2.1-1.6,1.1-2.6c-3.7-3.9-7.7-7.6-11.5-11.5c-6.9,7.1-14.1,14-21,21.1
		C118,138.3,111,131.2,103.9,124.2z"/>
	<path class="st1" d="M39.2,99.2c10.9,6.3,21.9,12.6,32.8,18.9c1.4,0.7,0.8,2.6,1.1,3.9c0.4,14.7-0.2,29.5,0.2,44.2
		c16.9,9.5,33.6,19.4,50.5,29c1.3,0.9,2.7-0.1,3.8-0.7c15.8-9.1,31.6-18.3,47.5-27.4c1.2-0.6,2.4-1.6,2.1-3.1
		c0.1-15.2-0.1-30.3,0.1-45.5c11.3-6.3,22.4-12.9,33.6-19.3c-0.6,8.6-1.4,17.2-2.5,25.8c-5.1,2.6-9.9,5.8-15,8.5
		c-0.1,14-0.1,27.9,0,41.9c-22.8,13.1-45.6,26.3-68.3,39.4c-22.7-13.2-45.5-26.3-68.3-39.4c0-13.9,0.2-27.9-0.1-41.8
		c-4.9-3.1-10.2-5.6-14.9-8.9C40.5,116.2,39.9,107.7,39.2,99.2z"/>
</g>
</svg>
